X: 2
T: My Sweetest Lesbia
R: waltz
M: 3/4
L: 1/8
K: Gmaj
[V:V] z6|z6|G G A B2 A|[V:P1] GGA B2 c|d>c B2 A/G/G/^F/|GBA G>GF|[V:P2] B,2 F D2 G|D2 DG/=F/ EA,|B,2 D B,2 A,|[V:P3] g2 d g2 e|f2 g2 cd|g2 f g2 d|[V:P4] z6|z6|z6|[V:V] c2 c B>c d|A2 z A A G|F2 D|[V:P1] e2 c B>AB|A2 z c/B/ AG|F2 z|[V:P2] z E/=F/G/A/ D3|z ^F2 z z B,/^C/|D2 z|[V:P3] c'c/d/e/=f/ g2 G|d2 d'a/g/ fe|d2 z|[V:P4] z6|z6|z3|[V:V] d2 c B2 A|G2 B2 A G|F2 G|[V:P1] A>G E/F/ [GB,]2 [FA,]|[EG,]2 DG ^FG|F z/ D/B/c/|[V:P2] F/E/DC z2 z|z2 B,2 DB,/C/|A, z3|[V:P3] d'/=c'/ba g2 d|e>=f g2 de|d2 e|[V:V] A2 d2 c A|B2 z|B B c d2 B|[V:P1] d>c B2 A/G/G/^F/|[GB,]2 z|G2 A B>A G|[V:P2] D2 DG/=F/ EA,|z3|B,DE D2 B,|[V:P3] f2 g2 cd|g2 G|g2 c g2 G|[V:P4] z6|z3|z6|[V:V] c2 e2 c d|B2 z|G B c d2 B|[V:P1] GA/B/ c3 d|B z/ D/d/c/|B>A G d2 B|[V:P2] E2 EGAF|G z2|D2 E F2 G|[V:P3] c2 c'2 ad'|g2 z|g2 e d2 g|[V:P4] z6|z3|z6|[V:V] d2 A2 c B|A2 c4 B2 A2 A2|G8||
[V:P1] A2 d2 AG|F2 c4 B2 A2 A2|G8||
[V:P2] F3 DED|A,2 [GE]2 F2 G2 GF/E/ F2|D8||
[V:P3] d4 cG|d2 c2 d4 d4|[dG]8||
[V:P4] z6|z4 d'abc' d'3 c'|b8||

